!!!COM: Johannes Brahms
!!!CNT: Deutscher
!!!TXO: Deutsche
!!!OTL: Trost in Tra2nen
!!!OPS: Op. 48
!!!ONM: No. 5
!!!LYR: Goethe
!!!ONB: Original key: E Major
!!!ENC: Ayako Kataoka
!!!EED: Leigh VanHandel
!!!YOR: C.F. Peters, Brahms Lieder fu2r eine Singstimme mit Klavierbegleitung, Band III, ausgabe fu2r tiefere Stimme
!!!ODT: 1858/
!!NB: Vocal melody and text only encoded.
**kern	**silbe
*clefG2	*
*k[f#c#]	*
*M6/8	*
*MM[andante]	*
=1-	=1-
4r	.
8r	.
4r	.
{8a	{Wie
=2	=2
4b	kommt's,
8b	dass
4ee	du
8ee	so
=3	=3
4ee	trau-
8a	-rig
4a}	bist,}
{8a	{da
=4	=4
4dd	al-
8dd	-les
4cc#	froh
8a#	er-
=5	=5
4f#}	-scheint?}
8r	.
4r	.
{8f#	{Man
=6	=6
4g	sieht
8g	dir's
4g#	an
8g#	den
=7	=7
4ee	Au-
8a	-gen
4f#}	an,}
{8dd	{ge-
=8	=8
4cc#	wiss,
8a	du
(aq	hast
cc#q	|
4b)	|
8a	ge-
=9	=9
4a}	-weint.}
8r	.
4r	.
8r	.
=10	=10
4r	.
8r	.
4r	.
{8a	{"Und
=11	=11
*k[b-]	*
4a	hab
8a	ich
4dd	ein-
8dd	-sam
=12	=12
(8dd	auch
8cc#)	|
8b-	ge-
4a}	-weint,}
{8g	{so
=13	=13
4f#	ist's
8f#	mein
4a	eig-
8g#	-ner
=14	=14
4e}	Schmerz,}
8r	.
4r	.
{8a	{und
=15	=15
4ee	Tra2-
8ee	-nen
4dd#	flie-
8dd#	-ssen
=16	=16
4ddn	gar
8dd	so
4cc#}	su2ss,}
8r	.
=19	=19
4r	.
8r	.
4r	.
{8b-	{er-
=20	=20
4b-	-leich-
8a	-tern
(8a	mir
8g)	|
8e	das
=21	=21
4d}	Herz."}
8r	.
4r	.
8r	.
*-	*-
